img/svg/linkedin.svg

<svg width="34" height="34" viewBox="0 0 34 34" fill="none" xmlns="http://www.w3.org/2000/svg">
<g clip-path="url(#clip0)">
<path d="M32.1292 1.87027C30.8828 0.623501 29.381 0 27.6251 0H6.37496C4.61904 0 3.11727 0.623501 1.87027 1.87027C0.623501 3.11727 0 4.61896 0 6.37496V27.6249C0 29.3807 0.623501 30.8825 1.87027 32.1295C3.11727 33.3765 4.61904 34 6.37496 34H27.6249C29.3808 34 30.8826 33.3765 32.129 32.1295C33.376 30.8825 33.9995 29.3808 33.9995 27.6249V6.37496C33.9994 4.61896 33.3759 3.11704 32.1292 1.87027ZM10.3593 28.4659H5.24596V13.1039H10.3593V28.4659ZM9.89469 10.2598C9.36353 10.7689 8.6625 11.0235 7.79175 11.0235H7.76942C6.92837 11.0235 6.2461 10.7689 5.72207 10.2598C5.19797 9.75064 4.93607 9.11985 4.93607 8.36726C4.93607 7.59994 5.20556 6.96527 5.74401 6.46342C6.28285 5.96172 6.98001 5.71075 7.83579 5.71075C8.69165 5.71075 9.37788 5.96172 9.89446 6.46342C10.4109 6.96527 10.6766 7.59994 10.6912 8.36726C10.6912 9.11954 10.4259 9.75033 9.89469 10.2598ZM28.7538 28.4659H23.6405V20.2539C23.6405 17.9373 22.7849 16.7787 21.073 16.7787C20.4237 16.7787 19.8775 16.9594 19.4349 17.321C18.9918 17.6824 18.6599 18.1215 18.4389 18.6384C18.3354 18.9037 18.2839 19.3168 18.2839 19.8774V28.4658H13.1706C13.2149 19.1987 13.2149 14.0778 13.1706 13.1038H18.2839V15.2726C19.359 13.5917 20.8857 12.7494 22.866 12.7494C24.6368 12.7494 26.0611 13.3325 27.1383 14.4981C28.2156 15.6639 28.7541 17.3833 28.7541 19.6553V28.4659H28.7538Z" fill="black"/>
</g>
<defs>
<clipPath id="clip0">
<rect width="34" height="34" fill="white"/>
</clipPath>
</defs>
</svg>

<svg width="34" height="34" viewBox="0 0 34 34" fill="none" xmlns="http://www.w3.org/2000/svg"><g clip-path="url(#clip0)"><path d="M32.13 1.87C30.882.624 29.38 0 27.624 0H6.375C4.619 0 3.117.624 1.87 1.87.624 3.117 0 4.62 0 6.375v21.25c0 1.756.624 3.258 1.87 4.505C3.117 33.376 4.62 34 6.375 34h21.25c1.756 0 3.258-.623 4.504-1.87 1.247-1.248 1.87-2.75 1.87-4.505V6.375c0-1.756-.623-3.258-1.87-4.505zM10.36 28.466H5.245V13.104h5.113v15.362zM9.894 10.26c-.531.509-1.232.764-2.103.764h-.023c-.84 0-1.523-.255-2.047-.764-.524-.51-.786-1.14-.786-1.893 0-.767.27-1.402.808-1.904.539-.501 1.236-.752 2.092-.752.856 0 1.542.25 2.058.752.517.502.783 1.137.797 1.904 0 .753-.265 1.383-.796 1.893zm18.859 18.206H23.64v-8.212c0-2.317-.855-3.475-2.567-3.475-.65 0-1.195.18-1.638.542-.443.361-.775.8-.996 1.317-.104.266-.155.679-.155 1.24v8.588H13.17c.044-9.267.044-14.388 0-15.362h5.113v2.169c1.075-1.681 2.602-2.524 4.582-2.524 1.77 0 3.195.583 4.272 1.75 1.078 1.165 1.616 2.884 1.616 5.156v8.81z" fill="#000"/></g><defs><clipPath id="clip0"><path fill="#fff" d="M0 0h34v34H0z"/></clipPath></defs></svg>
